X:8
I:linebreak $
T:Mairi's Wedding
T:Lewis Bridal Song
C:John Roderick Bannerman, 1934
M:C
L:1/8
K:G major
 |: "G"D3E D2E2 | G2A2 B4 | "C"A2G2 E2G2 | "D7"B2A2 B2d2 | "G"D3E D2E2 | G2A2 B4 | 
"C"A2G2 E2C2 | "D7"D4 D4 :: 
"G"d3d d2e2 | d2c2 B4 | "C"A2G2 E2G2 | "D7"B2A2 B2d2 | 
"G"d3d d2e2 | d2c2 B4 | "C"A2G2 E2G2 | "D7"D4 D4 :| 

